X:1
T:Funeral of Queen Mary
C:Purcell
M:C
L:1/4
K:Bb
V:1 name="Trumpet 1 in Bb"
%%MIDI transpose -2
G4 | _A2 A2 | G4 | z4
V:2 name="Trumpet 2 in Bb"
%%MIDI transpose -2
=E4 | F2 F2 | =E4 | z4
V:3 name="Trumpet 3 in Bb"
%%MIDI transpose -2
C4 | C2 C2 | C4 | z4
V:4 name="Drums"
%%MIDI program 48
C,4 | C,2 C,2 | C,3 C,/4C,/4C,/4C,/4 | C,3 C,/4C,/4C,/4C,/4 |
